X: 1
T: James Brown's March
M: 4/4
L: 1/8
R: reel
K: Gmaj
~D3E GAB2-|Bged e/g/e/d/ Bd/B/|~A3B deg2-|gbag e4|
~D3E GAB2-|B g2 e/d/ d/e/e/d/ Bd/B/|~A3B deg2-|g b2 a/g/ e3 f|
|:g/e/d/B/ Ag/e/ d/B/A z G-|G/A/B/A/ ~B>A ~GE E2| g/e/d/B/ cg/e/ d/B/c z g-|ga b/a/g e4:|
